packages/core/src/svgs/tokens/branded/DBR.svg

<svg width="24" height="24" viewBox="0 0 24 24" fill="none" xmlns="http://www.w3.org/2000/svg">
<path d="M13.0526 6.21057H10.4211L9.63159 9.36847H7.11054C5.68422 9.36847 2 10.6738 2 14.3896C2 16.4422 3.22106 17.7895 5.3158 17.7895H10.3684L10.9473 15.6843H6.06843C5.64212 15.6685 4.63159 15.1211 4.63159 14.1738C4.63159 12.9843 6.01054 11.4737 7.57896 11.4737H9.10528L8.31581 14.6316C9.8632 14.6316 11.2105 13.579 11.5842 12.0789L13.0526 6.21057ZM17.2632 6.21057H14.6316L12.5264 14.6316H15.1579L15.9474 11.4737H18.0947C18.5158 11.4895 19.3685 12.0369 19.3685 12.9843C19.3685 14.1738 18.0106 15.6843 16.4474 15.6843H13.821C13.2393 15.6847 12.6781 15.8997 12.2449 16.2882C11.8118 16.6766 11.5372 17.2112 11.4737 17.7895H16.9106C18.6054 17.6632 22 16.4843 22 12.7685C22 10.7158 20.7895 9.36847 18.7053 9.36847H16.4737L17.2632 6.21057Z" fill="#151E57"/>
</svg>

<svg xmlns="http://www.w3.org/2000/svg" width="24" height="24" fill="none" viewBox="0 0 24 24">
    <path fill="#151E57" d="M13.053 6.21H10.42l-.79 3.158H7.11C5.684 9.368 2 10.674 2 14.39c0 2.052 1.221 3.4 3.316 3.4h5.052l.58-2.106h-4.88c-.426-.015-1.436-.563-1.436-1.51 0-1.19 1.379-2.7 2.947-2.7h1.526l-.79 3.158a3.37 3.37 0 0 0 3.27-2.553zm4.21 0h-2.631l-2.106 8.422h2.632l.79-3.158h2.147c.42.015 1.274.563 1.274 1.51 0 1.19-1.358 2.7-2.922 2.7h-2.626a2.363 2.363 0 0 0-2.347 2.106h5.437C18.605 17.663 22 16.484 22 12.769c0-2.053-1.21-3.4-3.295-3.4h-2.231z"/>
</svg>
